src/img/icons/edit.svg

<svg width="32" height="32" viewBox="0 0 32 32" fill="none" xmlns="http://www.w3.org/2000/svg">
<path d="M5.14058 29C4.55251 29 4.04873 28.7903 3.62924 28.3708C3.20975 27.9513 3 27.4475 3 26.8594V7.87342C3 7.28535 3.20975 6.78157 3.62924 6.36208C4.04873 5.94258 4.55251 5.73284 5.14058 5.73284H15.7224C16.0091 5.73284 16.2241 5.82248 16.3673 6.00178C16.5106 6.1813 16.5822 6.3769 16.5822 6.58859C16.5822 6.80027 16.5073 6.99713 16.3574 7.17916C16.2075 7.36142 15.9936 7.45255 15.7155 7.45255H5.14058C5.03542 7.45255 4.93893 7.49635 4.85111 7.58394C4.76352 7.67177 4.71972 7.76826 4.71972 7.87342V26.8594C4.71972 26.9646 4.76352 27.0611 4.85111 27.1489C4.93893 27.2365 5.03542 27.2803 5.14058 27.2803H24.1266C24.2318 27.2803 24.3282 27.2365 24.4161 27.1489C24.5037 27.0611 24.5475 26.9646 24.5475 26.8594V16.161C24.5475 15.8742 24.6372 15.6593 24.8167 15.516C24.996 15.3727 25.1915 15.3011 25.4032 15.3011C25.6149 15.3011 25.8118 15.3727 25.9938 15.516C26.1761 15.6593 26.2672 15.8742 26.2672 16.161V26.8594C26.2672 27.4475 26.0574 27.9513 25.6379 28.3708C25.2184 28.7903 24.7147 29 24.1266 29H5.14058ZM11.2119 19.7178V16.9839C11.2119 16.6905 11.2699 16.4103 11.3858 16.1432C11.5016 15.8761 11.6578 15.6442 11.8542 15.4476L23.8659 3.43589C24.0385 3.26344 24.2304 3.13934 24.4414 3.06361C24.6526 2.98788 24.8682 2.95001 25.0881 2.95001C25.3039 2.95001 25.5175 2.99016 25.729 3.07045C25.9404 3.15098 26.1329 3.27609 26.3065 3.44581L28.4745 5.60829C28.6481 5.78598 28.7795 5.98284 28.8687 6.19886C28.9581 6.41511 29.0028 6.6341 29.0028 6.85582C29.0028 7.07754 28.9631 7.2955 28.8837 7.5097C28.8043 7.72389 28.6767 7.9195 28.5008 8.09651L16.4864 20.1475C16.29 20.3382 16.0582 20.4927 15.7911 20.6108C15.524 20.729 15.2438 20.7881 14.9504 20.7881H12.2822C11.9768 20.7881 11.7221 20.686 11.5182 20.4818C11.314 20.2779 11.2119 20.0232 11.2119 19.7178ZM12.9317 19.0683H15.1232L24.001 10.1906L22.9027 9.09734L21.7489 7.98667L12.9317 16.7899V19.0683Z" fill="#131212"/>
</svg>

<svg xmlns="http://www.w3.org/2000/svg" viewBox="0 0 32 32">
  <path fill="currentColor" d="M5.14 29a2.06 2.06 0 0 1-1.51-.63A2.056 2.056 0 0 1 3 26.86V7.872c0-.588.21-1.091.63-1.51.419-.42.923-.63 1.51-.63h10.582c.287 0 .502.09.645.269a.92.92 0 0 1 .215.587.911.911 0 0 1-.225.59c-.15.182-.363.274-.641.274H5.14a.403.403 0 0 0-.29.13.403.403 0 0 0-.131.29V26.86c0 .106.044.202.131.29a.403.403 0 0 0 .29.131h18.986a.403.403 0 0 0 .29-.131.403.403 0 0 0 .13-.29V16.161c0-.287.09-.502.27-.645a.92.92 0 0 1 .586-.215c.212 0 .409.072.59.215.183.143.274.358.274.645v10.698c0 .588-.21 1.092-.63 1.512-.419.42-.922.629-1.51.629H5.14Zm6.072-9.282v-2.734c0-.294.058-.574.174-.84.116-.268.272-.5.468-.696L23.866 3.436a1.53 1.53 0 0 1 .575-.372c.212-.076.427-.114.647-.114.216 0 .43.04.641.12.211.081.404.206.578.376l2.168 2.162c.173.178.304.375.394.59.09.217.134.436.134.658 0 .222-.04.44-.12.654a1.63 1.63 0 0 1-.382.587l-12.015 12.05a2.343 2.343 0 0 1-.695.464 2.055 2.055 0 0 1-.84.177h-2.669c-.305 0-.56-.102-.764-.306a1.036 1.036 0 0 1-.306-.764Zm1.72-.65h2.191l8.878-8.877-1.098-1.094-1.154-1.11-8.817 8.803v2.278Z"/>
</svg>
